SVG_Azure_Grouped/Security/Cloud App Security.svg

<?xml version="1.0" encoding="UTF-8" standalone="no"?>
<!-- Generated by Microsoft Visio, SVG Export Cloud App Security.svg Page-1 -->

<svg
   xmlns:dc="http://purl.org/dc/elements/1.1/"
   xmlns:cc="http://creativecommons.org/ns#"
   xmlns:rdf="http://www.w3.org/1999/02/22-rdf-syntax-ns#"
   xmlns:svg="http://www.w3.org/2000/svg"
   xmlns="http://www.w3.org/2000/svg"
   xmlns:sodipodi="http://sodipodi.sourceforge.net/DTD/sodipodi-0.dtd"
   xmlns:inkscape="http://www.inkscape.org/namespaces/inkscape"
   width="0.78735828in"
   height="0.64861262in"
   viewBox="0 0 56.689795 46.700277"
   xml:space="preserve"
   class="st5"
   version="1.1"
   id="svg48"
   sodipodi:docname="Cloud App Security.svg"
   style="font-size:12px;overflow:visible;color-interpolation-filters:sRGB;fill:none;fill-rule:evenodd;stroke-linecap:square;stroke-miterlimit:3"
   inkscape:version="0.92.5 (2060ec1f9f, 2020-04-08)"><metadata
   id="metadata52"><rdf:RDF><cc:Work
       rdf:about=""><dc:format>image/svg+xml</dc:format><dc:type
         rdf:resource="http://purl.org/dc/dcmitype/StillImage" /></cc:Work></rdf:RDF></metadata><sodipodi:namedview
   pagecolor="#ffffff"
   bordercolor="#666666"
   borderopacity="1"
   objecttolerance="10"
   gridtolerance="10"
   guidetolerance="10"
   inkscape:pageopacity="0"
   inkscape:pageshadow="2"
   inkscape:window-width="640"
   inkscape:window-height="480"
   id="namedview50"
   showgrid="false"
   inkscape:zoom="2.1095237"
   inkscape:cx="37.795143"
   inkscape:cy="10.588695"
   inkscape:window-x="0"
   inkscape:window-y="0"
   inkscape:window-maximized="0"
   inkscape:current-layer="svg48" />
	<style
   type="text/css"
   id="style2">
	<![CDATA[
		.st1 {fill:none;stroke:#fea11b;stroke-linecap:butt;stroke-width:2.68275}
		.st2 {fill:url(#grad0-8);stroke:none;stroke-linecap:butt;stroke-width:1.12564}
		.st3 {fill:#000000;stroke:#000000;stroke-linecap:butt;stroke-width:3.22922}
		.st4 {fill:#000000;stroke:#000000;stroke-linecap:butt;stroke-width:2.75991}
		.st5 {fill:none;fill-rule:evenodd;font-size:12px;overflow:visible;stroke-linecap:square;stroke-miterlimit:3}
	]]>
	</style>

	<defs
   id="Patterns_And_Gradients">
		<linearGradient
   id="grad0-8"
   x1="0"
   y1="56.212225"
   x2="46.370807"
   y2="56.212225"
   gradientTransform="scale(1.2225364,0.81797154)"
   gradientUnits="userSpaceOnUse">
			<stop
   offset="0"
   stop-color="#0078d4"
   stop-opacity="1"
   id="stop4" />
			<stop
   offset="0.065"
   stop-color="#0a7cd7"
   stop-opacity="1"
   id="stop6" />
			<stop
   offset="0.34"
   stop-color="#2e8ce1"
   stop-opacity="1"
   id="stop8" />
			<stop
   offset="0.595"
   stop-color="#4897e9"
   stop-opacity="1"
   id="stop10" />
			<stop
   offset="0.82"
   stop-color="#589eed"
   stop-opacity="1"
   id="stop12" />
			<stop
   offset="1"
   stop-color="#5ea0ef"
   stop-opacity="1"
   id="stop14" />
		</linearGradient>
	</defs>
	<g
   id="g46"
   transform="translate(-5.6694146,-3.1940219)">
		<title
   id="title18">Page-1</title>
		<g
   id="group16887-1"
   transform="translate(5.66929,-34.0157)">
			<title
   id="title20">Cloud App Security.16887</title>
			<g
   id="group16888-2">
				<title
   id="title22">g8</title>
				<g
   id="shape16889-3"
   transform="translate(18.3199,-22.533)">
					<title
   id="title24">path53</title>
					<ellipse
   cx="10.6327"
   cy="72.494797"
   rx="10.6327"
   ry="11.4107"
   class="st1"
   id="ellipse26"
   style="fill:none;stroke:#fea11b;stroke-width:2.68274999;stroke-linecap:butt" />
				</g>
				<g
   id="shape16890-5">
					<title
   id="title29">path6-9</title>
					<path
   d="m 49.91,61.85 c 0.04,-0.5 0.07,-1 0.07,-1.5 0,-7.94 -6.6,-14.37 -14.7,-14.37 -4.81,0 -9.22,2.27 -11.94,5.98 a 11.1539,11.0272 -180 0 0 -5.88,-1.64 c -6.12,0 -11.11,4.89 -11.11,10.89 l 0.02,0.87 C 2.23,64.15 0,67.58 0,71.88 0,78.63 5.57,83.91 12.67,83.91 h 31.35 c 7.11,0 12.67,-5.28 12.67,-12.03 0,-4.46 -2.44,-8.03 -6.78,-10.03 z"
   class="st2"
   id="path31"
   inkscape:connector-curvature="0"
   style="fill:url(#grad0-8);stroke:none;stroke-width:1.12564003;stroke-linecap:butt" />
				</g>
				<g
   id="shape16891-9"
   transform="translate(26.2961,-18.0594)">
					<title
   id="title34">path875</title>
					<ellipse
   cx="2.5049601"
   cy="81.429001"
   rx="2.5049601"
   ry="2.47648"
   class="st3"
   id="ellipse36"
   style="fill:#000000;stroke:#000000;stroke-width:3.22921991;stroke-linecap:butt" />
				</g>
				<g
   id="shape16892-11"
   transform="translate(26.6903,-1.67639)">
					<title
   id="title39">rect893</title>
					<rect
   x="0"
   y="72.691101"
   width="4.2972398"
   height="11.2144"
   class="st4"
   id="rect41"
   style="fill:#000000;stroke:#000000;stroke-width:2.75991011;stroke-linecap:butt" />
				</g>
			</g>
		</g>
	</g>
</svg>

<?xml version="1.0" encoding="UTF-8" standalone="no"?>
<!DOCTYPE svg PUBLIC "-//W3C//DTD SVG 1.1//EN" "http://www.w3.org/Graphics/SVG/1.1/DTD/svg11.dtd">
<!-- Generated by Microsoft Visio, SVG Export Cloud App Security.svg Page-1 -->
<svg xmlns="http://www.w3.org/2000/svg" xmlns:xlink="http://www.w3.org/1999/xlink" xmlns:ev="http://www.w3.org/2001/xml-events"
		width="0.944882in" height="1.16535in" viewBox="0 0 68.0315 83.9055" xml:space="preserve" color-interpolation-filters="sRGB"
		class="st5">
	<style type="text/css">
	<![CDATA[
		.st1 {fill:none;stroke:#fea11b;stroke-linecap:butt;stroke-width:2.68275}
		.st2 {fill:url(#grad0-8);stroke:none;stroke-linecap:butt;stroke-width:1.12564}
		.st3 {fill:#000000;stroke:#000000;stroke-linecap:butt;stroke-width:3.22922}
		.st4 {fill:#000000;stroke:#000000;stroke-linecap:butt;stroke-width:2.75991}
		.st5 {fill:none;fill-rule:evenodd;font-size:12px;overflow:visible;stroke-linecap:square;stroke-miterlimit:3}
	]]>
	</style>

	<defs id="Patterns_And_Gradients">
		<linearGradient id="grad0-8" x1="0" y1="0" x2="1" y2="0" gradientTransform="rotate(-90.032128289245 0.5 0.5)">
			<stop offset="0" stop-color="#0078d4" stop-opacity="1"/>
			<stop offset="0.065" stop-color="#0a7cd7" stop-opacity="1"/>
			<stop offset="0.34" stop-color="#2e8ce1" stop-opacity="1"/>
			<stop offset="0.595" stop-color="#4897e9" stop-opacity="1"/>
			<stop offset="0.82" stop-color="#589eed" stop-opacity="1"/>
			<stop offset="1" stop-color="#5ea0ef" stop-opacity="1"/>
		</linearGradient>
	</defs>
	<g>
		<title>Page-1</title>
		<g id="group16494-1" transform="translate(5.66929,-34.0157)">
			<title>Cloud App Security.16494</title>
			<g id="group16495-2">
				<title>g8</title>
				<g id="shape16496-3" transform="translate(18.3199,-22.533)">
					<title>path53</title>
					<ellipse cx="10.6327" cy="72.4948" rx="10.6327" ry="11.4107" class="st1"/>
				</g>
				<g id="shape16497-5">
					<title>path6-9</title>
					<path d="M49.91 61.85 C49.95 61.35 49.98 60.85 49.98 60.35 C49.98 52.41 43.38 45.98 35.28 45.98 C30.47 45.98
								 26.06 48.25 23.34 51.96 A11.1539 11.0272 -180 0 0 17.46 50.32 C11.34 50.32 6.35 55.21 6.35 61.21
								 L6.37 62.08 C2.23 64.15 0 67.58 0 71.88 C0 78.63 5.57 83.91 12.67 83.91 L44.02 83.91 C51.13 83.91
								 56.69 78.63 56.69 71.88 C56.69 67.42 54.25 63.85 49.91 61.85 Z" class="st2"/>
				</g>
				<g id="shape16498-9" transform="translate(26.2961,-18.0594)">
					<title>path875</title>
					<ellipse cx="2.50496" cy="81.429" rx="2.50496" ry="2.47648" class="st3"/>
				</g>
				<g id="shape16499-11" transform="translate(26.6903,-1.67639)">
					<title>rect893</title>
					<rect x="0" y="72.6911" width="4.29724" height="11.2144" class="st4"/>
				</g>
			</g>
		</g>
	</g>
</svg>
